www/assets/icons/usb_off.svg

<svg width="24" height="24" viewBox="0 0 24 24" xmlns="http://www.w3.org/2000/svg" fill='currentColor'><path d="M15.715 7.7002H19.715V11.7002H18.715V13.7002C18.715 14.0402 18.635 14.3602 18.485 14.6402L16.715 12.8702V11.7002H15.715V7.7002ZM11.715 7.8702L13.715 9.8702V5.7002H15.715L12.715 1.7002L9.71498 5.7002H11.715V7.8702ZM13.715 15.7002V17.9802C14.315 18.3202 14.715 18.9602 14.715 19.7002C14.715 20.8002 13.815 21.7002 12.715 21.7002C11.615 21.7002 10.715 20.8002 10.715 19.7002C10.715 18.9602 11.115 18.3302 11.715 17.9802V15.7002H8.71498C7.60498 15.7002 6.71498 14.8102 6.71498 13.7002V11.4202C6.11498 11.0802 5.71498 10.4402 5.71498 9.7002C5.71498 9.1102 5.97498 8.5702 6.39498 8.2102L2.10498 3.9202L3.51498 2.5102L21.895 20.8902L20.485 22.3002L13.885 15.7002H13.715ZM11.715 13.7002V13.5302L9.20498 11.0202C9.06498 11.1802 8.89498 11.3102 8.71498 11.4202V13.7002H11.715Z"/></svg>

<svg xmlns="http://www.w3.org/2000/svg" width="24" height="24" viewBox="0 0 24 24" fill='currentColor'><path d="M15.715 7.7h4v4h-1v2c0 .34-.08.66-.23.94l-1.77-1.77V11.7h-1zm-4 .17 2 2V5.7h2l-3-4-3 4h2zm2 7.83v2.28c.6.34 1 .98 1 1.72 0 1.1-.9 2-2 2s-2-.9-2-2c0-.74.4-1.37 1-1.72V15.7h-3c-1.11 0-2-.89-2-2v-2.28c-.6-.34-1-.98-1-1.72 0-.59.26-1.13.68-1.49l-4.29-4.29 1.41-1.41 18.38 18.38-1.41 1.41-6.6-6.6zm-2-2v-.17l-2.51-2.51c-.14.16-.31.29-.49.4v2.28z"/></svg>
